src/lib/assets/clear-icon.svg

<svg width="88" height="88" viewBox="0 0 88 88" fill="none" xmlns="http://www.w3.org/2000/svg">
<path d="M63.1125 70.8984L17.1016 24.8875C13.2516 30.2672 11 36.8672 11 44C11 62.2188 25.7812 77 44 77C51.1328 77 57.7328 74.7484 63.1125 70.8984ZM70.8984 63.1125C74.7484 57.7328 77 51.1328 77 44C77 25.7812 62.2188 11 44 11C36.8672 11 30.2672 13.2516 24.8875 17.1016L70.8984 63.1125ZM88 44C88 68.3031 68.3031 88 44 88C19.6969 88 0 68.3031 0 44C0 19.6969 19.6969 0 44 0C68.3031 0 88 19.6969 88 44Z" fill="white"/>
</svg>

<svg xmlns="http://www.w3.org/2000/svg" width="88" height="88" fill="none"><path fill="#fff" d="m63.112 70.898-46.01-46.01C13.252 30.268 11 36.868 11 44c0 18.219 14.781 33 33 33 7.133 0 13.733-2.252 19.112-6.102Zm7.786-7.785C74.748 57.732 77 51.132 77 44c0-18.219-14.781-33-33-33-7.133 0-13.733 2.252-19.113 6.102l46.011 46.01ZM88 44c0 24.303-19.697 44-44 44S0 68.303 0 44 19.697 0 44 0s44 19.697 44 44Z"/></svg>
